assets/icons/typo.svg

<svg width="25" height="24" viewBox="0 0 25 24" fill="none" xmlns="http://www.w3.org/2000/svg">
<path fill-rule="evenodd" clip-rule="evenodd" d="M6.04336 13.0003L3.82384 19.3311C3.64112 19.8523 3.0705 20.1267 2.54931 19.9439C2.02813 19.7612 1.75375 19.1906 1.93647 18.6694L4.85543 10.3435C5.50526 8.48991 6.02492 7.00758 6.52417 5.995C6.7774 5.48139 7.06251 5.00877 7.41297 4.65535C7.78387 4.28133 8.27215 4.00024 8.88016 4.00024C9.48817 4.00024 9.97645 4.28133 10.3473 4.65535C10.6978 5.00877 10.9829 5.48139 11.2362 5.995C11.7354 7.00757 12.2551 8.48989 12.9049 10.3435L15.8239 18.6694C16.0066 19.1906 15.7322 19.7612 15.211 19.9439C14.6899 20.1267 14.1192 19.8523 13.9365 19.3311L11.717 13.0003H6.04336ZM6.74454 11.0003C7.41145 9.09819 7.88513 7.75736 8.31799 6.87943C8.53708 6.43506 8.70858 6.1892 8.8331 6.06362C8.85198 6.04458 8.8676 6.03037 8.88016 6.01985C8.89271 6.03037 8.90834 6.04458 8.92721 6.06362C9.05174 6.1892 9.22324 6.43506 9.44233 6.87944C9.87519 7.75736 10.3489 9.09819 11.0158 11.0003H6.74454ZM8.92051 5.99218C8.92051 5.99218 8.91801 5.99393 8.91333 5.9955C8.91822 5.99264 8.92051 5.99218 8.92051 5.99218ZM8.84699 5.9955C8.84231 5.99393 8.83981 5.99218 8.83981 5.99218C8.83981 5.99218 8.8421 5.99264 8.84699 5.9955Z" fill="white"/>
<path fill-rule="evenodd" clip-rule="evenodd" d="M19.8042 9.00027C19.8291 9.00028 19.8543 9.0003 19.8799 9.0003C19.9055 9.0003 19.9307 9.00028 19.9556 9.00027C20.3456 9.0001 20.6533 8.99997 20.9274 9.04339C22.4251 9.28059 23.5996 10.4552 23.8368 11.9528C23.8802 12.2269 23.8801 12.5346 23.8799 12.9246C23.8799 12.9495 23.8799 12.9747 23.8799 13.0003V13.9993V15.5717V15.5738V18.5003C23.8799 19.0526 23.4322 19.5003 22.8799 19.5003C22.5631 19.5003 22.2807 19.353 22.0975 19.1231C21.3592 19.6741 20.4434 20.0003 19.4513 20.0003C17.5558 20.0003 15.8799 18.5152 15.8799 16.5003C15.8799 14.5673 17.4469 13.0003 19.3799 13.0003H21.8799C21.8799 12.4976 21.8768 12.3627 21.8614 12.2657C21.7598 11.6238 21.2564 11.1204 20.6146 11.0188C20.5176 11.0034 20.3826 11.0003 19.8799 11.0003C19.3772 11.0003 19.2423 11.0034 19.1453 11.0188C18.6319 11.1001 18.2064 11.4387 18.005 11.9002C17.7841 12.4064 17.1947 12.6377 16.6885 12.4169C16.1823 12.196 15.951 11.6066 16.1719 11.1004C16.6414 10.0244 17.6329 9.23336 18.8324 9.04339C19.1066 8.99996 19.4142 9.0001 19.8042 9.00027ZM21.8799 15.0003H19.3799C18.5515 15.0003 17.8799 15.6719 17.8799 16.5003C17.8799 17.3226 18.5703 18.0003 19.4513 18.0003C20.7921 18.0003 21.8791 16.9138 21.8799 15.5733V15.5717V15.0003Z" fill="white"/>
</svg>

<svg xmlns="http://www.w3.org/2000/svg" width="25" height="24" fill="none" viewBox="0 0 25 24"><path fill="#fff" fill-rule="evenodd" d="m6.043 13-2.22 6.331a1 1 0 1 1-1.887-.662l2.92-8.325c.65-1.854 1.169-3.336 1.668-4.349.253-.514.539-.986.889-1.34.37-.374.86-.655 1.467-.655s1.096.281 1.467.655c.35.354.636.826.89 1.34.498 1.013 1.018 2.495 1.668 4.349l2.919 8.325a1 1 0 0 1-1.887.662l-2.22-6.33zm.702-2c.666-1.902 1.14-3.243 1.573-4.12.22-.445.39-.69.515-.816l.047-.044q.019.015.047.044c.125.125.296.371.515.815.433.878.907 2.22 1.574 4.121zM8.92 5.992l-.008.003zm-.074.003-.007-.003zM19.804 9h.152c.39 0 .697 0 .971.043a3.5 3.5 0 0 1 2.91 2.91c.043.274.043.582.043.972V18.5a1 1 0 0 1-1.782.623A4.4 4.4 0 0 1 19.45 20c-1.895 0-3.571-1.485-3.571-3.5a3.5 3.5 0 0 1 3.5-3.5h2.5c0-.502-.003-.637-.019-.734a1.5 1.5 0 0 0-1.246-1.247c-.097-.016-.232-.019-.735-.019s-.638.003-.735.019a1.5 1.5 0 0 0-1.14.881 1 1 0 0 1-1.833-.8 3.5 3.5 0 0 1 2.66-2.057C19.107 9 19.414 9 19.804 9m2.076 6h-2.5a1.5 1.5 0 0 0-1.5 1.5c0 .823.69 1.5 1.571 1.5a2.43 2.43 0 0 0 2.429-2.427z" clip-rule="evenodd"/></svg>
